icons/capture-filled.svg

<svg width="256" height="256" viewBox="0 0 256 256" fill="none" xmlns="http://www.w3.org/2000/svg">
<path d="M196 0H60C26.8629 0 0 26.8629 0 60V196C0 229.137 26.8629 256 60 256H196C229.137 256 256 229.137 256 196V60C256 26.8629 229.137 0 196 0Z" fill="#000B1D"/>
<path d="M130.437 164.258V181.198C130.505 181.705 130.409 182.221 130.164 182.665C129.92 183.11 129.54 183.457 129.084 183.654C125.859 185.08 122.474 186.078 119.008 186.626C114.388 187.099 109.745 187.297 105.103 187.219C98.4597 187.115 91.8523 186.183 85.4233 184.443C79.7038 182.955 74.2509 180.527 69.2716 177.251C64.4713 174.083 60.2361 170.077 56.7535 165.411C52.816 160.563 49.7188 155.044 47.5994 149.098C44.9974 142.007 43.4493 134.546 43.0081 126.972C42.8336 116.677 45.4753 106.54 50.6272 97.7376C55.7463 88.3047 63.4311 80.6444 72.7224 75.7129C83.1679 70.5798 94.5923 67.947 106.151 68.0092C110.936 67.9515 115.721 68.1653 120.483 68.6498C123.512 68.9913 126.491 69.6975 129.362 70.754C129.671 70.9955 129.912 71.3177 130.061 71.6876C130.21 72.0575 130.262 72.4619 130.211 72.8593L130.818 92.7928C130.818 93.8449 130.42 94.1955 129.632 93.8449C126.464 92.3333 123.103 91.2997 119.652 90.7754C115.234 90.1145 110.775 89.7919 106.312 89.8101C99.7584 89.6098 93.2743 91.2459 87.5423 94.5461C82.254 97.5752 77.9114 102.11 75.0267 107.614C71.9708 113.699 70.4568 120.489 70.6272 127.347C70.5341 132.232 71.2498 137.097 72.7433 141.731C73.813 145.596 75.5598 149.222 77.8963 152.431C80.4644 155.722 83.5551 158.536 87.0356 160.75C89.9731 162.508 93.1307 163.836 96.4188 164.697C99.8245 165.556 103.316 165.997 106.821 166.013C111.104 166.013 116.37 165.837 119.696 165.486C122.893 165.164 126.044 164.458 129.084 163.381C129.535 163.03 129.872 162.942 130.1 163.118C130.234 163.27 130.333 163.452 130.392 163.649C130.45 163.846 130.465 164.054 130.437 164.258Z" fill="white"/>
<path d="M176.843 96.125C183.868 95.8005 190.848 97.436 197.055 100.861C202.021 103.834 206.002 108.299 208.473 113.665C211.01 119.32 212.282 125.496 212.194 131.732V165.586C212.194 167.809 212.222 169.914 212.279 171.901C212.334 173.891 212.419 177.33 212.531 179.436C212.531 179.904 212.419 180.197 212.194 180.313C207.12 182.302 202.61 183.881 198.662 185.049C194.896 186.179 191.05 187 187.16 187.504C183.231 187.984 179.277 188.218 175.321 188.206C169.456 188.29 163.63 187.219 158.151 185.049C153.134 182.58 148.843 178.767 145.72 174.005C142.421 169.207 140.755 163.406 140.986 157.517C140.79 151.808 142.558 146.213 145.975 141.731C149.577 137.324 154.292 134.044 159.591 132.259C165.967 130.051 172.658 128.983 179.379 129.102H185.553C186.825 129.071 188.097 129.129 189.361 129.277V128.224C189.297 127.178 189.097 126.146 188.767 125.155C188.317 123.722 187.533 122.427 186.484 121.384C185.104 120.061 183.458 119.072 181.664 118.49C178.951 117.639 176.122 117.253 173.29 117.349C169.307 117.224 165.323 117.535 161.404 118.276C157.868 119.035 154.411 120.151 151.085 121.608C150.756 121.726 150.399 121.726 150.071 121.608C149.902 121.545 149.759 121.424 149.666 121.264C149.573 121.105 149.537 120.917 149.562 120.732V103.016C149.535 102.605 149.635 102.196 149.848 101.848C150.062 101.501 150.377 101.234 150.748 101.086C154.774 99.2354 159.007 97.9097 163.348 97.1394C167.807 96.3718 172.324 96.0322 176.843 96.125ZM190.395 165.85L190.818 147.694C189.463 147.462 186.709 147.041 185.468 146.923C184.227 146.807 182.705 146.748 180.901 146.747C176.393 146.416 171.89 147.478 167.964 149.8C166.752 150.647 165.767 151.8 165.101 153.15C164.436 154.499 164.111 156.002 164.158 157.518C163.994 159.141 164.35 160.775 165.173 162.166C166.361 163.877 168.007 165.188 169.907 165.938C172.572 167.02 175.422 167.527 178.282 167.429C180.207 167.437 182.129 167.29 184.032 166.99C186.171 166.726 188.295 166.346 190.395 165.85Z" fill="white"/>
</svg>

<svg xmlns="http://www.w3.org/2000/svg" width="256" height="256" fill="none"><path fill="#000B1D" d="M196 0H60C26.863 0 0 26.863 0 60v136c0 33.137 26.863 60 60 60h136c33.137 0 60-26.863 60-60V60c0-33.137-26.863-60-60-60"/><path fill="#fff" d="M130.437 164.258v16.94a2.4 2.4 0 0 1-.273 1.467 2.25 2.25 0 0 1-1.08.989 40.6 40.6 0 0 1-10.076 2.972c-4.62.473-9.263.671-13.905.593a80 80 0 0 1-19.68-2.776 54.2 54.2 0 0 1-16.151-7.192 50 50 0 0 1-12.519-11.84 55.3 55.3 0 0 1-9.154-16.313 77.3 77.3 0 0 1-4.59-22.126c-.175-10.295 2.466-20.432 7.618-29.234 5.12-9.433 12.804-17.094 22.095-22.025 10.446-5.133 21.87-7.766 33.429-7.704 4.785-.058 9.57.156 14.332.64a38 38 0 0 1 8.879 2.105c.309.242.55.564.699.934s.201.774.15 1.171l.607 19.934c0 1.052-.398 1.402-1.186 1.052a35.6 35.6 0 0 0-9.98-3.07 88 88 0 0 0-13.34-.965c-6.554-.2-13.038 1.436-18.77 4.736-5.288 3.03-9.63 7.564-12.515 13.068a41.7 41.7 0 0 0-4.4 19.733 44.2 44.2 0 0 0 2.116 14.384 33.2 33.2 0 0 0 5.153 10.7 36.4 36.4 0 0 0 9.14 8.319 36 36 0 0 0 9.383 3.947c3.406.859 6.897 1.3 10.402 1.316 4.283 0 9.549-.176 12.875-.527a40.2 40.2 0 0 0 9.388-2.105q.675-.527 1.016-.263a1.42 1.42 0 0 1 .337 1.14m46.406-68.133c7.025-.325 14.005 1.311 20.212 4.736 4.966 2.973 8.947 7.438 11.418 12.804a42.7 42.7 0 0 1 3.721 18.067v33.854q0 3.335.085 6.315c.055 1.99.14 5.429.252 7.535q0 .702-.337.877-7.61 2.984-13.532 4.736a72.4 72.4 0 0 1-11.502 2.455c-3.929.48-7.883.714-11.839.702a44.9 44.9 0 0 1-17.17-3.157c-5.017-2.469-9.308-6.282-12.431-11.044-3.299-4.798-4.965-10.599-4.734-16.488-.196-5.709 1.572-11.304 4.989-15.786 3.602-4.407 8.317-7.687 13.616-9.472a57.3 57.3 0 0 1 19.788-3.157h6.174a27 27 0 0 1 3.808.175v-1.053a12 12 0 0 0-.594-3.069 9.2 9.2 0 0 0-2.283-3.771 12.6 12.6 0 0 0-4.82-2.894 25.1 25.1 0 0 0-8.374-1.141 54.7 54.7 0 0 0-11.886.927 54 54 0 0 0-10.319 3.332 1.5 1.5 0 0 1-1.014 0 .8.8 0 0 1-.405-.344.83.83 0 0 1-.104-.532v-17.716a2 2 0 0 1 .286-1.168c.214-.347.529-.614.9-.762a52 52 0 0 1 12.6-3.947 71 71 0 0 1 13.495-1.014m13.552 69.725.423-18.156c-1.355-.232-4.109-.653-5.35-.771q-1.861-.174-4.567-.176a22.2 22.2 0 0 0-12.937 3.053 8.86 8.86 0 0 0-2.863 3.35 9.24 9.24 0 0 0-.943 4.368 7.63 7.63 0 0 0 1.015 4.648 10.44 10.44 0 0 0 4.734 3.772 20.4 20.4 0 0 0 8.375 1.491 36 36 0 0 0 5.75-.439 59 59 0 0 0 6.363-1.14"/></svg>
